X:1
T:Occhi se foste
T:Occhi se foste
T:Piero Benedetti
T:Source : Musische di P.Benedetti---Libro secondo---Venetia---R.Amadino---1613. Editor : André Voerendeels (04/06/15)
T:Notes : Original clefs : C1, F4 Figures in BC are notated in original print Composer called "Pietro" in this edition m 7 "sol" in S (original "si half) and "do" in BC (original "mi"half) are editorial suggestions 
C:Piero Benedetti
%%score 1 2
L:1/8
Q:1/4=70
M:4/4
K:C
V:1 treble nm="Soprano" snm="S"
V:2 bass nm="BC" snm="BC"
V:1
 d4 d4 | z GGG B4 | B4 z dcB | B3 G A4 | A3 A A/G/^F/G/ A/B/A/B/ | c/d/c/d/ e/e/c/d/ B>c A2 | %6
w: Oc- chi|se fo- ste pro-|rai'a- ri- guar- da-|re quel- la|che n'ar- * * * * * * * *||
w: Se voi|fo- ste, ca- gion|_ del mio pe-|na- * re,|del mio- mar- * * * * * * *||
w: Se voi|mi con- stran- ge-|sti a la- gri-|ma- * re,|per quel- * * * * * * * *||
w: E poi|che co- si vuo|_ ch'io pian- *|ga è voi,|oc- chi fa- * * * * * * *||
 B3 c/d/ B2 G2 | z BBB d3 B | A4 G4 |: z2 G2 G4- | ^G2 G2 z2 A2- | A2 G^F F4 | ^F2 z G G3 A | A8 | %14
w: * * * * de,|è no- vi da con-|for- to,|pian- ge-|* te oc-|* chi pian- ge-|te il vo- stro|tor-|
w: * * * * tir,|è del mio vi- ver|cor- to,|pian- ge-|* te oc-|* chi pian- ge-|te il vo- stro|tor-|
w: * * * la, che|de- sia ve- der mi|mor- to,|Pian- ge-|* te oc-|* chi pian- ge-|te il vo- stro|tor-|
w: * * * re- te,|fe- de,- a gl'oc- chi|suo- i,|qual stra-|* tio fac-|* ci'el- la sem-|pre, sem- pre di|vo-|
 G8 :| %15
w: to.|
w: to.|
w: to|
w: i.|
V:2
 G,,8 | G,,8 | G,,8 |"^#" G,,4 D,4 |"^#" D,8 |"^-natural" A,,8 |"^4""^#" E,4 E,2 C,2 | %7
 G,,4 B,,2 G,,2 |"^4""^#" D,2 D,2 G,,4 |: G,,6 F,,2 | E,,2 E,D, ^C,4 | ^C,4 D,4 | %12
 D,2 B,,2 C,2 ^C,2 |"^4""^#" D,4 D,4 | G,,8 :| %15

